src/images/Love.svg

<svg width="34" height="34" viewBox="0 0 34 34" fill="none" xmlns="http://www.w3.org/2000/svg">
<rect width="34" height="34" rx="17" fill="black"/>
<path d="M17 25.0317H16.9883C14.8358 24.9917 8.625 19.38 8.625 14.065C8.625 11.5117 10.7292 9.27 13.1275 9.27C15.0358 9.27 16.3192 10.5867 16.9992 11.545C17.6775 10.5883 18.9608 9.27 20.87 9.27C23.27 9.27 25.3733 11.5117 25.3733 14.0658C25.3733 19.3792 19.1617 24.9908 17.0092 25.03H17V25.0317ZM13.1283 10.5208C11.395 10.5208 9.87583 12.1775 9.87583 14.0667C9.87583 18.85 15.7375 23.73 17.0008 23.7817C18.2658 23.73 24.1258 18.8508 24.1258 14.0667C24.1258 12.1775 22.6067 10.5208 20.8733 10.5208C18.7667 10.5208 17.59 12.9675 17.58 12.9917C17.3883 13.46 16.6167 13.46 16.4242 12.9917C16.4125 12.9667 15.2367 10.5208 13.1292 10.5208H13.1283Z" fill="#6E767D"/>
</svg>

<svg xmlns="http://www.w3.org/2000/svg" viewBox="0 0 34 34"><defs><style>.cls-1{fill:red;opacity:0;}.cls-2{fill:#fff;}</style></defs><g id="Calque_2" data-name="Calque 2"><g id="Calque_1-2" data-name="Calque 1"><path class="cls-1" d="M17,0h0A17,17,0,0,1,34,17h0A17,17,0,0,1,17,34h0A17,17,0,0,1,0,17H0A17,17,0,0,1,17,0Z"/><path class="cls-2" d="M17,25h0c-2.15,0-8.37-5.65-8.37-11a4.78,4.78,0,0,1,4.51-4.79A4.87,4.87,0,0,1,17,11.55a4.87,4.87,0,0,1,3.87-2.28,4.78,4.78,0,0,1,4.5,4.8c0,5.31-6.21,10.92-8.36,11ZM13.13,10.52a3.5,3.5,0,0,0-3.25,3.55c0,4.78,5.86,9.66,7.12,9.71s7.13-4.93,7.13-9.71a3.5,3.5,0,0,0-3.26-3.55c-2.1,0-3.28,2.45-3.29,2.47a.65.65,0,0,1-1.16,0s-1.18-2.47-3.29-2.47Z"/></g></g></svg>
